X:1
T: Joy Be Wi' My Love
K:Amix
M:4//4
L:1/8
S:pete  tradtunes 2006-3-8
S:McFarlan MS 1740
|: f2B BdB | c2A Ace | fdf ece | d2B Bde :|
| f>ga ede | "tr"c2A Ace | fga ece | d2B Bde
| fga ede | "tr"c2A Ace | fdf ece | d2B Bde |]
